svg/fluentui-system-icons/ic_fluent_table_16_regular.svg

<svg width="16" height="16" viewBox="0 0 16 16" fill="none" xmlns="http://www.w3.org/2000/svg">
<path d="M2 4.5C2 3.11929 3.11929 2 4.5 2H11.5C12.8807 2 14 3.11929 14 4.5V11.5C14 12.8807 12.8807 14 11.5 14H4.5C3.11929 14 2 12.8807 2 11.5V4.5ZM6 13H10V11L6 11V13ZM5 11H3V11.5C3 12.3284 3.67157 13 4.5 13H5V11ZM6 10L10 10V6L6 6V10ZM5 6H3V10H5V6ZM6 5L10 5V3H6V5ZM5 3H4.5C3.67157 3 3 3.67157 3 4.5V5H5V3ZM13 6H11V10H13V6ZM13 11H11V13H11.5C12.3284 13 13 12.3284 13 11.5V11ZM13 5V4.5C13 3.67157 12.3284 3 11.5 3H11V5H13Z" fill="#212121"/>
</svg>

<svg xmlns="http://www.w3.org/2000/svg" width="16" height="16"><path d="M2 4.5A2.5 2.5 0 0 1 4.5 2h7A2.5 2.5 0 0 1 14 4.5v7a2.5 2.5 0 0 1-2.5 2.5h-7A2.5 2.5 0 0 1 2 11.5v-7ZM6 13h4v-2H6v2Zm-1-2H3v.5A1.5 1.5 0 0 0 4.5 13H5v-2Zm1-1h4V6H6v4ZM5 6H3v4h2V6Zm1-1h4V3H6v2ZM5 3h-.5A1.5 1.5 0 0 0 3 4.5V5h2V3Zm8 3h-2v4h2V6Zm0 5h-2v2h.5a1.5 1.5 0 0 0 1.5-1.5V11Zm0-6v-.5A1.5 1.5 0 0 0 11.5 3H11v2h2Z"/></svg>
